X:1
T:PRINTEMPS
T:PRINTEMPS
T:PARAPHRASE
T:CRAUDE DEBUSSY
T:Transcription pour Piano par LÉON ROQUES 
C:CRAUDE DEBUSSY
%%score { ( 1 3 6 7 ) | ( 2 4 5 8 ) }
L:1/8
Q:1/4=84
M:3/4
K:E
V:1 treble nm="Piano" snm="Pno."
V:3 treble 
V:6 treble 
V:7 treble 
V:2 bass 
V:4 bass 
V:5 bass 
V:8 bass 
V:1
"^Très modéré"!p! (B4[Q:1/4=80] ^A2 |[Q:1/4=84]!<(! (3G^AB[Q:1/4=80] d2[Q:1/4=76] e2)!<)! | %2
!mp![Q:1/4=80]!>(! (B4[Q:1/4=76] ^A2 |[Q:1/4=84]"^\n" (3^G^AB-[Q:1/4=78] B4)!>)![Q:1/4=72] | %4
!p![Q:1/4=84] (=g4[Q:1/4=80] =f2[Q:1/4=76] |[Q:1/4=84] (3_e=f=g _b2[Q:1/4=80] =c'2)[Q:1/4=76] | %6
!p![Q:1/4=84] (=g4[Q:1/4=80] =f2[Q:1/4=76] |[Q:1/4=84] (3_e=f=g-[Q:1/4=80] g2[Q:1/4=76] _b2-) | %8
!pp![Q:1/4=80]!<(!"^poco a poco cresc. ed anim." (^a2 g2[Q:1/4=76] d2)!<)! | %9
!p![Q:1/4=84]!<(! (3(g=ab- bc'-[Q:1/4=80] c'[Q:1/4=120]=d')!<)![Q:1/4=150][Q:1/4=40] | %10
!p![Q:1/4=88]!<(! ([^a^d']2 g2[Q:1/4=84] d2)!<)! | %11
!p![Q:1/4=92]!<(!"^sempre cresc." (3(g=ab- bc'-[Q:1/4=88] c'=d')!<)! | %12
[Q:1/4=96]!mp! x2 [b=d']2 [bd']2 ||[K:F#][Q:1/4=100]!<(! (!courtesy!^a>g b4)!<)! | %14
!<(! (a>g d'4)!<)! |!f! (d>c!<(! f3 =e)!<)! | %16
!f! (d'>c'!<(! f'3[Q:1/4=90][Q:1/4=80] =e')!<)![Q:1/4=190] | %17
[Q:1/4=60] x/[Q:1/4=72]!f!"^Très ralenti"!8va(! ([=gb=g']3!>(! [=ac'=a'][gbg']!>)![ac'a'] | %18
!p!!>(! [=gb=g']2 [=ac'=e'=a']2!>)! [be'g'b']2) || %19
[M:6/8]!p![Q:1/4=68] [c'^e'^g'c'']!8va)!"_dolce" ([gc'e']2- [gc'e'][egc'][ceg]) | %20
 z ([Gce]2- [Gce][EGc][CEG]) | %21
!pp!"^Rit."[Q:1/4=64] z"_sempre e morendo" !arpeggio![gc'e'g']2[Q:1/4=60] !arpeggio![fbd'f']3 | %22
[Q:1/4=56] z !arpeggio![Gceg]2[Q:1/4=52] !arpeggio![FBdf]3 |[Q:1/4=50]!ppp! z (G2 [ce]) ([eg]2 | %24
[Q:1/4=48] [c'e']2) z z2 !fermata!z || %25
[M:3/4]"^Andante molto espressivo"!pp![Q:1/4=72] (A2 c4[Q:1/4=70] | %26
[Q:1/4=72] (3def[Q:1/4=70] g2[Q:1/4=68] a2) |[Q:1/4=72] (A2!>(! c3[Q:1/4=70] A | %28
[Q:1/4=68] F D3-!>)![Q:1/4=90] D2) |[Q:1/4=72] x/!<(! (D2 G2[Q:1/4=70] (3AGA!<)! | %30
!p![Q:1/4=72] B2[Q:1/4=70] A2[Q:1/4=110] G2) | %31
[Q:1/4=20] x/[Q:1/4=72]!pp! z2 z2 z[Q:1/4=70] (g-[Q:1/4=30] | %32
[Q:1/4=72] (3:2:2e'2 b- d'2)[Q:1/4=70] B2 |[Q:1/4=72] (A2 c4[Q:1/4=70] | %34
[Q:1/4=72] (3def[Q:1/4=70] g2[Q:1/4=68] a2) |[Q:1/4=72] (A2 f3 d)[Q:1/4=70] | %36
[Q:1/4=72] ([Ada]2[Q:1/4=70]!<(! [FAf]3[Q:1/4=60] [ff']!<)![Q:1/4=64] | %37
!mf![Q:1/4=72] [ee']2[Q:1/4=70] [dad']2[Q:1/4=68] [cfc'][Aa]) | %38
[Q:1/4=72]"_dim." ([^Bf^b]2[Q:1/4=70] [Ada]2[Q:1/4=68] [Gdg]2 | %39
!pp![Q:1/4=72] g2-[Q:1/4=70] [gc']4)[Q:1/4=68] |[Q:1/4=72] z2[Q:1/4=70] c4[Q:1/4=68] | %41
!p!"_dolciss."[Q:1/4=72]!<(! (=d2[Q:1/4=68] f4[Q:1/4=64]!<)! | %42
!p![Q:1/4=68] (3=ec!>(!B =GC-[Q:1/4=64] (3CB,=A,)!>)! | %43
!p![Q:1/4=72]!<(! (=d2[Q:1/4=68] f4[Q:1/4=64]!<)! | %44
!p![Q:1/4=68]!>(! (3=ecB[Q:1/4=64] =GC-[Q:1/4=60] (3CB,!>)![Q:1/4=56]=A,) | %45
"^Un peu animé"!p!"_sempre dolciss."[Q:1/4=72] (f2- f=d[Q:1/4=70] (3=ede | %46
[Q:1/4=74] f2 =d2[Q:1/4=72] c2) |!p![Q:1/4=74]!<(! (f2- f=d[Q:1/4=72] (3=ede!<)! | %48
!p![Q:1/4=76]!<(! f2[Q:1/4=72] =d2[Q:1/4=68] B2)!<)! | %49
!ppp!"^a Tempo"[Q:1/4=72] ([FA]4[Q:1/4=70] c'2- | %50
[Q:1/4=72]!<(! c'2[Q:1/4=68] a2[Q:1/4=64] f2)!<)! |!mf![Q:1/4=70]!>(! (e2 d2[Q:1/4=68] f2!>)! | %52
!p![Q:1/4=72]!>(! [^Ac]4[Q:1/4=68] [GA]2)!>)! | %53
"^Molto dim. e rall."[Q:1/4=72]!p!!>(! (d2 B2[Q:1/4=68] A2) | (G2 F2[Q:1/4=64] G2)!>)! | %55
!ppp![Q:1/4=60] (A c3)[Q:1/4=58] ([cf]2 | [cfa] [fac']3[Q:1/4=56] [ac'f'])[Q:1/4=50] (!tenuto!c | %57
"^Un poco più mosso"!p![Q:1/4=78] (3:2:2a2 =e g2) (3:2:2(f2 =e | %58
 [_d_e]2 _B2-)[Q:1/4=74]!>(! (3(B_c_d!>)! |[Q:1/4=78] (3:2:2[=G_e]2 [_A_f] [Ge]2 (3:2:2_B2 _E) || %60
[K:Db]!p! (3:2:2(c2 G B2 (3:2:2A2 G | F2)[Q:1/4=76] (c2-[Q:1/4=74]!>(! (3cde!>)! | %62
[Q:1/4=78]"^poco a poco cresc. ed accel." (3:2:2[=Af]2 [Bg] [Af]2[Q:1/4=80] (3:2:2c2 e) | %63
!p![Q:1/4=82] ([^F^c^f]2 [^G^d^g]2[Q:1/4=84] f2) | %64
!p![Q:1/4=88] (3:2:2([=A=f]2 [B_g] [Af]2 (3:2:2c2 e | %65
!p!!<(! ^f2)"^Rit."[Q:1/4=80] (^d2[Q:1/4=70] (3:2:2=e2[Q:1/4=130] f)!<)! || %66
[K:C]!p![Q:1/4=80] x/"^Con moto, ma poco a poco" (g4 d2) |[Q:1/4=82] (d'2 b2 a2) | %68
!p![Q:1/4=84] (g4 d2) |[Q:1/4=86] (d'2 b2!mp! g2)[Q:1/4=150] | %70
[Q:1/4=60] x/!p!"^Più moto"[Q:1/4=88] (g4!p! (3aga | _b4 =ef) |!mp!"_cresc." (g4 (3aga | _b4 c'2) | %74
!f![Q:1/4=92]"_sempre cresc. e string." (_d'4 (3[_eg_e'][_dd'][ee'] | =e'2 ^g'2 ^a2) | %76
!f![Q:1/4=96] (_d'4 (3[_eg_e'][_dd'][ee'] | =e'2 [^fb^f'][^g^g'][be'b']>[Q:1/4=160][^a^a']) || %78
[K:F#][Q:1/4=100] x/"^Appassionato"!ff! x4 a2 | %79
[Q:1/4=96] (ag[Q:1/4=92] [Be][Gd-][Q:1/4=88] (3[^^Gd][Q:1/4=80][Ac]3/2[Q:1/4=50]A/) | %80
"^Moderato"!p![Q:1/4=84]!<(! (e2- ecdf)!<)! |!p![Q:1/4=80]!>(! (e2- ecdf)!>)! | %82
!pp!"^Molto rit."[Q:1/4=78] =f6- |[Q:1/4=76]"_dim." f6 | %84
"_perando"[Q:1/4=72] (!tenuto!.[=Ac=f]2 !tenuto!.[cf=g]2[Q:1/4=68] !tenuto!.[cf=a]2 | %85
[Q:1/4=64] !tenuto!.[=f=ab]2 !tenuto!.[fac']2[Q:1/4=60] !tenuto!.[fad']2) | %86
"^1o Tempo"!pp!"_le chant en dehors"[Q:1/4=84] (6:4:4([eac'e']3/2c'/d'/f'/) (!///-![eac']2 e'2) | %87
 (6:4:4([eac'e']3/2c'/d'/f'/) (!///-![ebd'] e')[Q:1/4=80] (!///-![eac'] e') | %88
[Q:1/4=84] (6:4:4([eac'e']3/2c'/d'/f'/) (!///-![eac']2 e'2)[Q:1/4=80] | %89
!sfz![Q:1/4=84]!8va(! (6:4:4([ad'f'a']3/2!p!f'/g'/b'/[Q:1/4=80]!>(! (3[d'f'a'][ad'f'][fad']!8va)![Q:1/4=78] (3[dfa][Adf]!>)![FAd]) | %90
!pp![Q:1/4=84]"_cresc." (6:4:4([Bdb]3/2g/a/c'/) !tenuto!b2 !tenuto!c'2 | %91
 (6:4:4([dgbd']3/2b/c'/e'/)[Q:1/4=80] !tenuto!d'2[Q:1/4=78] !tenuto!=e'2 | %92
"^En serrant peu à peu"[Q:1/4=80] (6:4:4([^ebc'^e']3/2c'/d'/f'/) !tenuto!e'2[Q:1/4=78] !tenuto!f'2 | %93
[Q:1/4=76] !tenuto!^^f'2[Q:1/4=74] !tenuto!g'2[Q:1/4=72] ([=d'=f'=a'][=d=f=a]) | %94
!mf!"^Con moto poco a poco"[Q:1/4=84] (6:4:4([^c^f^a]3/2C/D/F/)"_cresc." ([EAc]4 | %95
 (3[DFAd][Ee][Ff][Q:1/4=82] [GBdg]2[Q:1/4=80] [A^^cea]2) | %96
!f![Q:1/4=84] ([^egb]2-[Q:1/4=86]!<(! [egb]2[Q:1/4=88] (3ad'3/2a/ | %97
 c'!<)!b-!ff! [egb])[Q:1/4=80]!>(!!tenuto![B=eg]!tenuto![GBe]!tenuto![=EGB]!>)! | %98
!mf![Q:1/4=84] (6:4:6(g/b/=e'/g'/f'/e'/[Q:1/4=86]!<(!{/b} (6:4:4b'3/2g'/e'/b/[Q:1/4=88] (3ad'3/2a/!<)![Q:1/4=60] | %99
[Q:1/4=80]!>(! c'b- [egb])!>)![Q:1/4=78]!tenuto![B=eg]!tenuto![GBe]!tenuto![=EGB] | %100
!p!"^Revenez au 1er Mouvt"[Q:1/4=84] (3(GAB c"_dim."A- AB | GD-[Q:1/4=80] D2)[Q:1/4=76] d2 | %102
[Q:1/4=84]"_sempre dim." (3([Gdg][Aa][Bb] [c=ec'][Aa]-[Q:1/4=80] [A^ea][Bb]) | %103
!pp!"^Molto rall."[Q:1/4=76] [FBdg][FBdg]- [FBdg][Q:1/4=74][FBdg]- [FBdg]"_marc."[FBdg] | %104
[Q:1/4=72]!8va(!!>(! [gbd'g'][gbd'g'][Q:1/4=68] [gbd'g'][gbd'g'][Q:1/4=50] [ad'a'][Q:1/4=40][ad'a']!8va)!!>)! | %105
"^a Tempo"!ppp![Q:1/4=84] (3(c'/f'/a'/(3a/c'/f'/) (3(f/a/c'/(3c/f/a/) (3(A/c/f/(3F/A/c/) | %106
[Q:1/4=80] (!arpeggio![DFA][CEFA]-[Q:1/4=76] [CEFA][B,DFA-]"_m.g."[Q:1/4=72]!<(! (3Ac!p!e)!<)! | %107
!ppp![Q:1/4=84] (3(c'/f'/a'/(3a/c'/f'/) (3(f/a/c'/(3c/f/a/) (3(A/c/f/(3F/A/c/) | %108
!p![Q:1/4=80] (!arpeggio![DFA][CEFA]-[Q:1/4=76] [CEFA][B,DFA])[Q:1/4=72] A"_m.g."a | %109
!pp![Q:1/4=80] (!arpeggio![DFA][CEFA]-[Q:1/4=76] [CEFA][B,DFA])[Q:1/4=70] A"_m.g."[Q:1/4=60]a[Q:1/4=55] | %110
!pp!"^Rit."[Q:1/4=72]"_molto dim." [FA][FA][Q:1/4=68] !tenuto!F2[Q:1/4=64] !tenuto!A2 | %111
"^Lent"!pp!"_très expressif"[Q:1/4=60]!>(! (=d2!>)!!pp! c2 B2 |!pp!!>(! f4!>)![Q:1/4=56] (3gfg) | %113
!ppp![Q:1/4=58] [Afa][cac']- [cac']4- | [cac']2!8va(! [c'a'c'']4- |!ppp!"_m.d." [c'a'c'']6- | %116
 [c'a'c'']2!8va)! z2 !fermata!z2 |] %117
V:2
 z6 | z6 |[K:treble] z2!sfz! (=G4 |!p! F2 E2 D2) | %4
!p!!ped! ([=D^GB][DGB]- [DGB][DGB]-!ped-up!!ped! [DGB][D_A=c])!ped-up!!ped! | %5
 (!arpeggio![_E=G_d][EGd]- [EGd][EGd]-!ped-up!!ped! [EGd][=EGd])!ped-up!!ped! | %6
!pp! (!arpeggio![=F_A=d][FAd] [_EA=c][EAc]!ped-up!!ped! [=DA_B]!ped-up![DAB])!ped! | %7
 (!arpeggio![_D=G_B][DGB]!ped-up!!ped! [D=FB][DFB]!ped-up!!ped! [D_EB][DEB])!ped-up! | %8
[K:bass]!pp!!ped!!<(! (3z (CD- DF-!ped-up!!ped! F^E)!<)!!ped-up! | %9
!p!!ped!!<(! [G,=E]2!ped-up!!ped! (E,/4G,/4B,/4=D/4F/4D/4B,/4G,/4) (E,/4G,/4B,/4D/4 F/) z/!ped-up!!ped!!<)! | %10
!p!!<(! (3(B,C^D- DF-!ped-up!!<)!!ped! F^E)!ped-up! | %11
!p!!<(!!ped! [G,=E]2 (E,/4G,/4B,/4=D/4F/4D/4B,/4G,/4) (E,/4G,/4B,/4D/4 F/) z/!<)!!ped-up! | %12
!ped! [G,,,G,,]2 (E,/4G,/4B,/4=D/4F/4D/4B,/4G,/4) (E,/4G,/4B,/4D/4 F/) z/!ped-up! || %13
[K:F#]!ped! (3!>!B,!>!C!>!D-!ped-up!!ped! D!>!E!ped-up!!ped! !>!E!>!F!ped-up! | %14
[K:treble]!ped! !>!^^F2!ped-up!!ped! !>![GB]2!ped-up!!ped! !>![=A^B]2!ped-up! | %15
[K:bass]!mf!!ped! (6:4:6(C,/=G,/^A,/=E/A,/G,/)!ped-up!!ped! (6:4:6(=E,/G,/B,/E/B,/G,/)!ped-up!!ped! (6:4:6(E,/G,/C/E/C/G,/)!ped-up! | %16
!mf!!ped! (6:4:6(C,/=G,/^A,/=E/A,/G,/)!ped-up!!ped! (6:4:6(=E,/G,/B,/E/B,/G,/)!ped-up!!ped! (6:4:6(B,,/E,/G,/=D/G,/E,/)!ped-up! | %17
!ped! (3x/4x/4x/4!sfz! !arpeggio![=A,,=E,=G,C] !>!E, !>!=A,4!ped-up! | %18
[K:treble]!ped! [C=E]3 F =A2!ped-up! ||[M:6/8][K:bass]!ped! [C,,,C,,]3- [C,,,C,,] z z!ped-up! | %20
!ped! [A,,C,E,G,]3- [A,,C,E,G,]2 z!ped-up! |"_marc."!ped! (=A,3-!>(! A,!>)! B,2)!ped-up! | %22
!ped! (=A,3-!>(! A,!>)! B,2)!ped-up!!ped! | [C,G,]6- | [C,G,] C2- !fermata!C3!ped-up! || %25
[M:3/4]!ped! [F,,,F,,]2 z2 z2!ped-up! |[K:treble]!ped! (F4!ped-up!!ped! E2)!ped-up! | %27
[K:bass]!ped! C2!ped! A,4!ped-up! |!ped! D,6!ped-up! |!ped! x/ !arpeggio![G,,D,]6-!ped-up! | %30
 D,4!ped-up!!ped! F,2 |!pp!!ped! (5:4:5x/8x/8x/8x/8x/8 !arpeggio![C,,G,,E,]3- x2 x!ped-up! | %32
[K:treble] (6:4:6z/!pp! (C/G/B/c/d/ e2)!ped-up!!ped! z2 | %33
[K:bass]!ped! [F,,,C,,F,,]2- [F,,,C,,F,,] z[K:treble] (F2-!ped-up! | %34
!ped! F2!ped-up!!ped! E2!ped-up!!ped! G2)!ped-up! | %35
[K:bass]!ped! [D,,A,,D,]2- [D,,A,,D,] z!ped-up!!ped! A,2!ped-up! | %36
!ped! F6!ped!!ped-up!!ped!!ped-up! |!ped! x6!ped!!ped-up!!ped!!ped-up! | %38
!ped! x6!ped-up!!ped!!ped-up!!ped!!ped-up! |!ped! (C4!ped-up!!ped! E2!ped-up! | %40
!ped! D2 C2 G,2)!ped-up! |!ped! (B,2 =D2 B,2!ped-up!!ped! | %42
 CB,!ped-up!!ped!=A,=G,!ped-up!!ped!=E,=A,,)!ped-up! |!ped! (B,2 =D2 B,2!ped-up!!ped! | %44
 CB,!ped-up!!ped!=A,=G,!ped-up!!ped!=E,=A,,)!ped-up! |!pp!!ped! z2 (C2 =C2!ped-up! | %46
!ped! B,2 ^A,4)!ped-up!!ped! |!pp!!<(! (=A,2 G,4!ped-up!!<)! | %48
!p!!ped!!<(! =A,2 G,2!p! =D,2)!ped-up!!<)! |!ped! x4!ped-up![K:treble]!ped! (3!>!D!>!E!>!F | %50
 !>!G2!ped-up!!ped! !>!A2 x2!ped-up! |[K:bass]!ped! ([G,,,G,,]6!ped-up! | %52
!ped! [C,,C,]2 [G,,,G,,]2 [F,,,F,,]2)!ped-up! |!ped! z .F,.B,[K:treble] .f.b z!ped-up! | %54
[K:bass]!ped! B,,6!ped-up! |!ped! [F,,,C,,F,,]6- | [F,,,C,,F,,]2!ped-up! z2 z2 | %57
!ped! (3z (C,F, (3CDC-!ped-up!!ped! (3CF,C,)!ped-up! | %58
!ped! (3z (_E,_B,-!ped-up!!ped! (3B,=CB,)!ped-up!!ped! B,2-!ped-up! | %59
!ped! (3:2:2_B,2 _C!ped-up!!ped! B,2!ped-up!!ped! =G,2!ped-up! || %60
[K:Db]!ped! (3z (E,A, (3EFE-!ped-up!!ped! (3EA,E,)!ped-up! | %61
!ped! (3z (F,C-!ped-up!!ped! (3C=DC)!ped-up!!ped! C2-!ped-up! | %62
!ped! (3:2:2C2 D!ped-up!!ped! C2!ped-up!!ped! =A,2!ped-up! | %63
!ped!!<(! (3:2:5[^D,,^D,]/(D,/^F,/=A,/^C-)!ped-up!!ped! (3C[K:treble] ([=A,=B,^D][B,D^F]!<)!!ped-up!!ped! (3[^CF=A][DA^c]!p![F=B^d])!ped-up! | %64
[K:bass]!ped! (3:2:2z2 _D!ped-up!!ped! C2!ped-up!!ped! =A,2!ped-up! | %65
!ped! (3:2:5[^D,,^D,]/(D,/^F,/=A,/^C)!ped-up!!ped! [D,=B,]2!ped-up!!ped! [^C,=A,]2!ped-up! || %66
[K:C]!ped! x/!<(! (B,4!ped-up!!ped! A,2!<)!!ped-up! | %67
!p!!ped!!>(! (3G,A,B,!ped-up!!ped! D2!ped-up!!ped! E2)!>)!!ped-up! |!<(! (B,4!ped! A,2!ped-up! | %69
!ped! (3G,A,B,!ped-up!!ped! D2!ped-up!!ped! E2)!<)!!ped-up! | %70
!ped! x/!<(! (3!arpeggio!CDE G2!ped-up!!ped! G,2!ped-up!!ped!!<)! | C4!ped-up! z2!ped! | %72
 (3CDE G2!ped-up!!ped! z2!ped-up! |!ped! [G,,G,]4!ped-up!!ped! z2!ped-up!!ped! | %74
 (3(_B,C_D F2!ped-up!!ped! F,2!ped-up! |!ped! ^A,4)!ped-up!!ped!!ped-up!!ped! z2!ped-up!!ped! | %76
 (3(_B,C_D F2!ped-up!!ped! F,2!ped-up! |!ped! ^A,2!ped-up!!ped! B,2!ped-up!!ped! ^G2)!ped-up! || %78
[K:F#]!ped! x/ [B,,E,]2!<(! (G,B,^B,C!ped-up!!ped!!<)! | %79
!ff!!>(! DE) G,=B,!ped-up!!ped! (3^B,C3/2^^C/!>)!!ped-up! | %80
!ped! [C,A,!courtesy!^C]4!ped-up!!ped! [C,=A,C]2!ped-up! | %81
!ped! [C,^A,C]4!ped-up!!ped! [C,=A,C]2!ped-up! | %82
!ped! z2 !tenuto!.[=G,!courtesy!^C]2 !tenuto!.[=A,C]2 | %83
 !tenuto!.B,2 !tenuto!.!courtesy!^C2 !tenuto!.!courtesy!^D2 | %84
 !tenuto!.=F2[K:treble] !tenuto!.=G2 !tenuto!.=A2 | %85
"_" !tenuto!.B2 !tenuto!.c2 !tenuto!.d2[K:bass]!ped-up!!ped! |[K:bass]!p! A,2 C4!ped-up! | %87
[K:treble]!<(!!ped! (3DEF!<)!!ped-up!!p!!ped!!>(! G2!ped-up!!ped! A2[K:bass]!ped-up!!ped!!>)! | %88
!p! (!arpeggio![F,,A,]2 C3 A,!ped-up!!ped! | F,2 (3D,)[K:treble] (dA (3FDA,)!ped-up! | %90
!ped! (D,2 G,2 A,2)!ped-up!!ped! | B,2 C2 =D2!ped-up!!ped! | %92
 (6:4:4([CG]3/2E/F/A/ G2 F2!ped-up!!ped! | E6)!ped-up! | %94
!mp!!ped! (!///-!C, F,)"_cresc." (!///-!F, A,) (!///-!A, C)!ped-up! | %95
!ped! (!///-!F, A,) (!///-!E, G,) (!///-!E, G,)!ped-up! | %96
!mf!!ped! (G,,2!<(! (6:4:4B,3/2G/=E/B,/ (3A,D3/2A,/!ped-up!!ped! | %97
 C!<)!B,- B,)!ped-up!!ped! z z2!ped-up!!ped! | %98
 (B,2-!<(! (3:2:2B,2 G, (3A,D3/2A,/!ped-up!!ped!!<)! |!ff!!>(! CB,-!>)! B,) z z2!ped-up!!ped! | %100
 (!arpeggio![G,,D,B,]4!ped-up!!ped! [G,,=E,]2!ped-up! | %101
!ped! ^E,2!ped-up!!ped! F,2!ped-up!!ped! ^^F,2)!ped-up! | %102
!ped! (D2!ped-up!!ped! =E2!ped-up!!ped! ^E2)!ped-up! | %103
!ped! [B,,,F,,B,,]4- [B,,,F,,B,,] [D,B,]!ped-up! | %104
!p!!ped!!>(! (3:2:2!arpeggio![F,G]2 [G,D] [B,F]2!ped-up!!ped! !arpeggio![C,B,E]2!>)!!ped-up! | %105
!ped! [F,A,CF][K:treble] (fcAFC)!ped-up! |[K:bass]!ped! [F,,,F,,]6!ped-up! | %107
!ped! [F,A,CF][K:treble] (fcAFC)!ped-up! | %108
[K:bass]!ped! [F,,F,] z z2!ped-up!!ped! !arpeggio![A,CE]2!ped-up! | %109
!ped! z2 z2!ped-up!!ped! !arpeggio![A,CE]2!ped-up! | %110
!ped![I:staff -1] (D[I:staff +1][K:treble][=DE]-!ped-up!!ped! [DE][C=E]-!ped-up!!ped! [CE][^B,^D])!ped-up! | %111
!ped! F6!ped-up!!ped!!ped-up! |!ped! F6!ped-up!!ped![K:bass]!ped-up!!ped! | %113
[K:bass] !arpeggio![F,,C,F,A,]6- | [F,,C,F,A,]6 | [C,A,C]6- | [C,A,C]2 z2 !fermata!z2!ped-up! |] %117
V:3
 x6 | x6 | x6 | G6 | x6 | x6 | x6 | x6 | [=B^d][Bd]- [Bd][Bd] [GB][GB] | [B=d][Bd] [dg]2 [gb]2 | %10
 ^dd [Bd][Bd] [GB][GB] | [B=d][Bd] [dg]2 [gb]2 | (3([=dgb=d'][ee'][ff']- [ff'][gg']- [gg'][aa']) || %13
[K:F#] [Bd][Bd]- [Bd][Bd]- [Bd][Bd] | [Bd][Bd] [df][df]- [df][df] | [=G^A]2 [GB]2 [Gc]2 | %16
 [=ga]2 [gb]2 [g=d']2 | x/!8va(! x6 | x6 ||[M:6/8] x!8va)! x5 | x6 | x6 | x6 | [CE]6 | x6 || %25
[M:3/4] [CFA]4 F2 | G6 | G2 F2 E2 | [B,D][I:staff +1] [F,A,]3- [F,A,]2 |[I:staff -1] x/ [B,D]6- | %30
 [B,D]4 [B,=D]2 | x/ !arpeggio![B,E]6- | g2- [gb]2 x2 | [A,CF]2 [CA]4 | A2 [Bd]2 [Ae]2 | F2 F3 D | %36
 x6 |[I:staff +1] (6:4:6(G,,/D,/G,/^B,/[I:staff -1]F/G/) [B,FA]2 [A,CF]2 | %38
 [G,DF]2 [A,CF]2 [^B,DF]2 | (d2 c2 G2- | [EG]4 =E2) | [=E=G]2 [G-B]2 [G=d]2 | %42
 (3:2:2[=GB]2 [=EG] [CE]B,[I:staff +1] G,2 |[I:staff -1] [=E=G]2 [G-B]2 [G^d]2 | %44
 (3:2:2[=GB]2 [=EG] [CE]B,[I:staff +1] G,2 |[I:staff -1] [F=A][FA]- [FA][FA]- [FA]2 | %46
 [F=d]F [=DF][DF]- [DF][DF] | [FB]F- FF- F2 | [FB]F- FF [FG]!p![FG] | !>!A,2 !>!C2 [ca]2- | %50
 [ca]2 [cf]2 !>!c2 | [F-=A^B]6 | F2 =E2 [CE]2 | [DF]6 | [B,=D]6 | [CF]4 A2 | x6 | %57
 [A=eg]2 [Ae]2 A2 | =G4 (3_F2 =F/^F/ | _D2- D2 D2 ||[K:Db] [CGB]2 G2 [CG]2 | %61
 [=A,E]2 [E=G=A]2 (3_G2 =G/_A/ | E2- E2 E2 | x6 | _E2- E2 E2 | [^F^c]2 [^G=B]2 =A2 || %66
[K:C] x/ [df][df]- [df][df] [FGc][FGc] | [db][db] [Bfg][Bfg] [Acf][Acf] | %68
 [df][df]- [df][df] [FGc][FGc] | [db][db] [Bfg][Bfg] [GBe][GBe] | %70
 x/ [_Bde][Bde] [Bde]"_cresc. molto"[Bde] [Bde]2 | [d_eg][deg] [ceg][ceg] [Gc][Gc] | %72
 [_Bde][Bde] [Bde][Bde] [Bde]2 | [d_eg][deg] [_d=eg][deg] [deg][deg] | [g_b][gb] [gb][gb] x2 | %75
 ^gg [^ae'][ae'] [eg]2 | [g_b][gb] [gb][gb] x2 | [^g^a][ga] x4 || %78
[K:F#] x/ ([aa'][gg'] [ee'][dd']- [dd']>[cc']) | [Bc]2 E2 F2 | [EA]4 [D=A]2 | [E^A]4 [D=A]2 | %82
 [=F=A!courtesy!^c]2 !tenuto!.[F=G]2 !tenuto!.[FA]2 | %83
 !tenuto!.[=F=A]2 !tenuto!.[FA!courtesy!^c]2 !tenuto!.[FA!courtesy!^d]2 | x6 | x6 | x6 | x6 | x6 | %89
!8va(! x4!8va)! x2 | x2 (!///-!B d) (!///-!d g) | x2 (!///-!g b) (!///-!g b) | %92
 x2 (!///-!b c') (!///-!b d') | (!///-!b d') (!///-!b d') x2 | x6 | x6 | B2- (3:2:2B2 g [eg]2 | %97
 [=eg]2- x4 | x2 x2 g2 | [=eg]2- x4 | D4 [B,D]2 | (3G,A,B, CA,- A,B, | x6 | x6 |!8va(! x6!8va)! | %105
 x6 | x4 [A,CE]2 | x6 | z4 (A/4!<(!B/4c/4e/4) (a/4b/4c'/4!p!e'/4)!<)! | %109
 x4 (A/4!<(!B/4c/4e/4) (a/4b/4c'/4!p!e'/4)!<)! | !arpeggio!x2 F[F-A] F[FA] | (A2 G4) | %112
 (A2!pp! G2) (3GFG | x6 | x2!8va(! x4 | x6 | x2!8va)! x4 |] %117
V:4
 x6 | x6 |[K:treble] x6 | x6 | x4 x7/4 (3x/8x/8x/8 | _B,6 | _B,6 | _B,6 | %8
[K:bass] [^G,,,^G,,]2 z2 z2 | x4 x7/4 x/8x/8 | !arpeggio![G,,D,]2 x2 x2 | x6 | x6 || %13
[K:F#] C,2 G,2 B,2 |[K:treble] D6 |[K:bass] C,2 =E,2 E,2 | C,2 =E,2 B,,2 | x13/2 |[K:treble] x6 || %19
[M:6/8][K:bass] x6 | x6 | C,6 | C,6 |{/C,,} x6 | x6 ||[M:3/4] x6 |[K:treble] [^B,D]2 [=B,=D]4 | %27
[K:bass] F,4 C,2 | z2 (A,,2 D,,2 | x/4x/4 G,,,2) x4 | G,,6 | x13/2 |[K:treble] x6 | %33
[K:bass] x4[K:treble] x2 | [^B,D]2 [=B,D]2 [A,^^C]2 |[K:bass] x6 | D2 =D2 C2 | G,,2 x4 | x6 | %39
 [C,G,]2- [C,G,] z z2 | x6 | =E,6 | x6 | =E,6 | x6 | =D,,6- | D,,2- D,, z z2 | !arpeggio!=D,,6- | %48
 D,,2- D,, z z2 | [G,,^D,]6[K:treble] | x2 F,2 A,2 |[K:bass] x6 | x6 | [B,,,B,,]6[K:treble] | %54
[K:bass] x6 | x6 | x6 | [F,,,F,,]4 z2 | [_B,,,_B,,]2 _E,2 !arpeggio![_G,,_D,]2 | %59
 [_E,,,_E,,]2 (3z (=G,=F,- (3F,_E,E,,) ||[K:Db] [A,,,A,,]4 z2 | [C,,C,]2 F,2 !arpeggio![_A,,E,]2 | %62
 [F,,,F,,]2 (3z (=A,=G,- (3G,F,F,,) | x8/3[K:treble] x10/3 | %64
[K:bass] [=F,,,=F,,]2 (3z (=A,=G,- (3G,F,F,,) | x6 ||[K:C] x/{/D,,} D,2 G,,2 F,2- | F,2 D,4- | %68
 D,2 G,,2 F,2- | F,2 D,2 G,2 | x/{/C,,-} [C,,C,]6 |{/G,,-} !arpeggio![G,,G,]6 | %72
{/C,,-} !arpeggio![C,,C,]6 | x6 |{/F,,-} !arpeggio![F,,F,]2 !arpeggio!_E,2 _B,,2 | %75
 ^C,3 [^B,,,^B,,][^C,,C,][^^C,,^^C,] |{/=F,,-} !arpeggio![F,,=F,]2 !arpeggio!_E,2 _B,,2 | %77
 ^C,2 ^G,^C^DE ||[K:F#] x/4x/4 !arpeggio!C,,4 z2 | !arpeggio!C,4 z2 | x6 | x6 | C,,6- | C,,6- | %84
 C,,6-[K:treble] | x6[K:bass] |[K:bass] !arpeggio![F,,,F,,]6 |[K:treble] x23/4[K:bass] x/4 | x6 | %89
 !arpeggio!D,,4[K:treble] x2 | G,,6 | x2 A,2 G,2 | !arpeggio!C,4 G,2 | C,6 | F,,4 F,2 | %95
 ^B,,2 =B,,2 A,,2 | (6:4:6G,,/B,,/=E,/G,/F,/E,/ x2 G,2 | !arpeggio![G,,=E,]2- [G,,E,] x x2 | %98
 !arpeggio![G,,=E,]4 G,2 | !arpeggio![G,,=E,]2- [G,,E,] x x2 | x6 | G,,6 | G,6 | x6 | x6 | %105
 x[K:treble] x5 |[K:bass] x6 | x[K:treble] x5 |[K:bass] x2 x3/2 x/4x/4 x2 | x2 x3/2 x/4x/4 x2 | %110
 x[K:treble] x5 | ([=B,=D]4 [F,D]2) | ([B,=D]4 [F,D]2)[K:bass] |[K:bass] x6 | x6 | [F,,,F,,]6- | %116
 [F,,,F,,]2 x2 x2 |] %117
V:5
 x6 | x6 |[K:treble] x6 | x6 | x6 | x4 x7/4 (3x/8x/8x/8 | x4 x7/4 (3x/8x/8x/8 | x6 |[K:bass] x6 | %9
 x6 | x6 | x6 | x6 ||[K:F#] x6 |[K:treble] x6 |[K:bass] x6 | x6 | x13/2 |[K:treble] x6 || %19
[M:6/8][K:bass] x6 | x6 | !arpeggio!x x x4 | !arpeggio!x x x2 x3/2 x/ | x6 | x6 ||[M:3/4] x6 | %26
[K:treble] x6 |[K:bass] x6 | x6 | x13/2 | x6 | x13/2 |[K:treble] x6 |[K:bass] x4[K:treble] x2 | %34
 x6 |[K:bass] x6 | x6 | x6 | x6 | x6 | x6 | x4 x3/2 x/ |{/=A,,} x x x4 | x4 x3/2 x/ | %44
{/=A,,} x x x4 | x6 | x4 x3/2 x/ |{/=D,,-} x6 | x6 | x4[K:treble] x2 | x2 C4 |[K:bass] x6 | x6 | %53
 x3[K:treble] x3 |[K:bass] x6 | x6 | x6 | x6 | x2 x3/2 x/4-x/4- x2 | x6 ||[K:Db] x6 | %61
 x2 x3/2 x/4-x/4- x2 | x6 | x8/3[K:treble] x10/3 |[K:bass] x6 | x6 ||[K:C] x/ x2 x4 | x6 | x2 x4 | %69
 x6 | x/4x/4 x4 x3/2 x/4x/4 | x4 x3/2 x/4x/4 | x6 | x4 x3/2 x/4x/4 | x3/2 x/- x4 | x4 x3/2 x/4x/4 | %76
 x3/2 x/- x4 | x6 ||[K:F#] x/ x4 x7/4 x/4 | x6 | x6 | x6 | x6 | x6 | x2[K:treble] x4 | %85
 x4 x3/2[K:bass] x/4x/4 |[K:bass] x6 |[K:treble] x4 x7/4[K:bass] x/4 | x4 x7/4 x/4 | %89
 x8/3[K:treble] x10/3 | x4 x7/4 x/4 | x4 x3/2 x/4x/4 | x4 x3/2 x/4x/4 | (!arpeggio!G,4 B,2) | x6 | %95
 x6 | x4 x7/4 x/8x/8 | x4 x3/2 x/4!f!x/4 | x4 x7/4 x/8x/8 | x4 x3/2 x/4x/4 | x6 | x6 | x6 | x6 | %104
 x6 | x[K:treble] x5 |[K:bass] x6 | x[K:treble] x5 |[K:bass] x6 | x6 | x[K:treble] x5 | x6 | %112
 x4 x3/2[K:bass] (3x/4x/4x/4 |[K:bass] x6 | x6 | x6 | x6 |] %117
V:6
 x6 | x6 | x6 | x6 | x6 | x6 | x6 | x6 | x6 | x6 | x6 | x6 | x6 ||[K:F#] x6 | x6 | x6 | x6 | %17
 x/!8va(! x6 | x6 ||[M:6/8] x!8va)! x5 | x6 | x6 | x6 | x6 | x6 ||[M:3/4] x6 | x6 | x6 | x6 | %29
 x13/2 | x6 | x/ (c2 G4) | x6 | x6 | x6 | A6 | x6 | x6 | x6 | e6 | x6 | x6 | x6 | x6 | x6 | x6 | %46
 x6 | x6 | x6 | x6 | x6 | x6 | x6 | x6 | x6 | x6 | x6 | x6 | x6 | x6 ||[K:Db] x6 | x6 | %62
 !arpeggio!x x x4 | x6 | !arpeggio!x x x4 | x6 ||[K:C] x13/2 | x6 | x6 | x6 | x13/2 | x6 | x6 | %73
 x6 | x6 | x6 | x6 | x6 ||[K:F#] x13/2 | x6 | x6 | x6 | x6 | x6 | x6 | x6 | x6 | x6 | x6 | %89
!8va(! x4!8va)! x2 | x6 | x6 | x6 | x6 | x6 | x6 | x6 | x6 | x6 | x6 | x6 | x6 | x6 | x6 | %104
!8va(! x6!8va)! | x6 | x6 | x6 | x6 | x6 | x6 | x6 | x6 | x6 | x2!8va(! x4 | x6 | x2!8va)! x4 |] %117
V:7
 x6 | x6 | x6 | x6 | x6 | x6 | x6 | x6 | x6 | x6 | x6 | x6 | x6 ||[K:F#] x6 | x6 | x6 | x6 | %17
 x/!8va(! x6 | x6 ||[M:6/8] x!8va)! x5 | x6 | x6 | x6 | x6 | x6 ||[M:3/4] x6 | x6 | x6 | x6 | %29
 x13/2 | x6 | x13/2 | x6 | x6 | x6 | x6 | x6 | x6 | x6 | x6 | x6 | x6 | x6 | x6 | x6 | x6 | x6 | %47
 x6 | x6 | x6 | x6 | x6 | x6 | x6 | x6 | x6 | x6 | x6 | x6 | x6 ||[K:Db] x6 | x6 | x6 | x6 | x6 | %65
 x6 ||[K:C] x/ G4 x2 | x6 | G4 x2 | x6 | x13/2 | x6 | x6 | x6 | _d4 x2 | =e2 ^g2 ^A2 | _d4 x2 | %77
 =e2 x4 ||[K:F#] x13/2 | x6 | x6 | x6 | x6 | x6 | x6 | x6 | x6 | x6 | x6 |!8va(! x4!8va)! x2 | x6 | %91
 x6 | x6 | x6 | x6 | x6 | x6 | x6 | x6 | x6 | x6 | x6 | x6 | x6 |!8va(! x6!8va)! | x6 | x6 | x6 | %108
 x6 | x6 | x6 | x6 | x6 | x6 | x2!8va(! x4 | x6 | x2!8va)! x4 |] %117
V:8
 x6 | x6 |[K:treble] x6 | x6 | x6 | x6 | x6 | x6 |[K:bass] x6 | x6 | x6 | x6 | x6 ||[K:F#] x6 | %14
[K:treble] x6 |[K:bass] x6 | x6 | x13/2 |[K:treble] x6 ||[M:6/8][K:bass] x6 | x6 | x6 | x6 | x6 | %24
 x6 ||[M:3/4] x6 |[K:treble] x6 |[K:bass] x6 | x6 | x13/2 | x6 | x13/2 |[K:treble] x6 | %33
[K:bass] x4[K:treble] x2 | x6 |[K:bass] x6 | x6 | x6 | x6 | x6 | x6 | x6 | x6 | x6 | x6 | x6 | x6 | %47
 x6 | x6 | x4[K:treble] x2 | x6 |[K:bass] x6 | x6 | x3[K:treble] x3 |[K:bass] x6 | x6 | x6 | x6 | %58
 x6 | x6 ||[K:Db] x6 | x6 | x6 | x8/3[K:treble] x10/3 |[K:bass] x6 | x6 ||[K:C] x13/2 | x6 | x6 | %69
 x6 | x13/2 | x6 | x6 | x6 | x6 | x6 | x6 | x6 ||[K:F#] x13/2 | x6 | x6 | x6 | x6 | x6 | %84
 x2[K:treble] x4 | A,6[K:bass] |[K:bass] x6 |[K:treble] x23/4[K:bass] x/4 | x6 | %89
 x8/3[K:treble] x10/3 | x6 | !arpeggio!G,,6 | x6 | x6 | x6 | x6 | x6 | x6 | x6 | x6 | x6 | x6 | %102
 x6 | x6 | x6 | x[K:treble] x5 |[K:bass] x6 | x[K:treble] x5 |[K:bass] x6 | x6 | x[K:treble] x5 | %111
 x6 | x11/2[K:bass] x/ |[K:bass] x6 | x6 | x6 | x6 |] %117

